icon/cg/arrows-expand-left-alt.svg

<svg viewBox="0 0 24 24" fill="none" xmlns="http://www.w3.org/2000/svg" height="1em" width="1em">
  <path d="M10.1005 2.10052V4.10052H5.51471L11.293 9.87878L9.87875 11.293L4.10046 5.51471L4.10046 10.1005H2.10046L2.10046 2.10052H10.1005Z" fill="currentColor"/>
  <path d="M21.8995 13.8995H19.8995V18.4853L14.1212 12.707L12.707 14.1213L18.4853 19.8995H13.8995V21.8995H21.8995V13.8995Z" fill="currentColor"/>
  <path d="M16.2426 9.1716L14.8284 7.75739L7.7573 14.8285L9.17151 16.2427L16.2426 9.1716Z" fill="currentColor"/>
</svg>

<svg width="24" height="24" fill="none" xmlns="http://www.w3.org/2000/svg"><path d="M10.1 2.1v2H5.516l5.778 5.779-1.414 1.414L4.1 5.515V10.1h-2v-8h8ZM21.9 13.9h-2v4.585l-5.779-5.778-1.414 1.414 5.778 5.778H13.9v2h8v-8ZM16.243 9.172l-1.415-1.415-7.07 7.072 1.414 1.414 7.07-7.071Z" fill="currentColor"/></svg>
